!!!!SEGMENT: Ror0119-Hor_che_laria_et_la_terra.krn
!!!id: Ror0119
!!!AGN: Secular work
!!!voices: 5
!!!COM: Cipriano de Rore
!!!OTL: Hor che laria et la terra
**kern	**text	**kern	**text	**kern	**text	**kern	**text	**kern	**text
*part5	*part5	*part4	*part4	*part3	*part3	*part2	*part2	*part1	*part1
*staff5	*staff5	*staff4	*staff4	*staff3	*staff3	*staff2	*staff2	*staff1	*staff1
*I"Bassus	*	*I"Tenor II	*	*I"Tenor I	*	*I"Altus	*	*I"Superius	*
*I'B	*	*I'T. II	*	*I'T. I	*	*I'A	*	*I'S	*
*clefF4	*	*clefGv2	*	*clefGv2	*	*clefGv2	*	*clefG2	*
*k[b-]	*	*k[b-]	*	*k[b-]	*	*k[b-]	*	*k[b-]	*
*M2/1	*	*M2/1	*	*M2/1	*	*M2/1	*	*M2/1	*
*met(C|)	*	*met(C|)	*	*met(C|)	*	*met(C|)	*	*met(C|)	*
=1	=1	=1	=1	=1	=1	=1	=1	=1	=1
!!section: Hor che l'aria
!!!OMD: Hor che l'aria
0r	.	1.G	Hor	0r	.	1r	.	0r	.
.	.	.	.	.	.	[1d	Hor	.	.
.	.	2G	che	.	.	.	.	.	.
=2	=2	=2	=2	=2	=2	=2	=2	=2	=2
0r	.	1B-y	l’a-	0r	.	2d]	.	0r	.
.	.	.	.	.	.	2d	che	.	.
.	.	2A	-ria et	.	.	1c	l’a-	.	.
.	.	2A	la	.	.	.	.	.	.
=3	=3	=3	=3	=3	=3	=3	=3	=3	=3
1r	.	1G	ter-	0r	.	2B-y	-ria et	1.d	Hor
.	.	.	.	.	.	2B-y	la	.	.
[1D	Hor	2F	-ra,	.	.	1A	ter-	.	.
.	.	2F	Hor	.	.	.	.	2d	che
=4	=4	=4	=4	=4	=4	=4	=4	=4	=4
2D]	.	2D	che	0r	.	1A	-ra,	1f	l’a-
2D	che	1A	l’a-	.	.	.	.	.	.
1C	l’a-	.	.	.	.	1r	.	2e	-ria et
.	.	2G	-ria et	.	.	.	.	2e	la
=5	=5	=5	=5	=5	=5	=5	=5	=5	=5
2BB-y	-ria et	2G	la	1.D	Hor	1r	.	1d	ter-
2BB-y	la	1F	ter-	.	.	.	.	.	.
[1BB-y	ter-	.	.	.	.	[1d	Hor	2d	-ra
.	.	2D	-ra	2D	che	.	.	2f	Per
=6	=6	=6	=6	=6	=6	=6	=6	=6	=6
2BB-]	.	2r	.	1B-y	l’a-	2d]	.	2f	na-
2GG	-ra	2D	Per	.	.	2d	che	2g	-tu-
2r	.	2D	na-	1A	-ria et	1f	l’a-	2.a	-ral
2D	Per	2F	-tu-	.	.	.	.	.	.
.	.	.	.	.	.	.	.	4b-y	.
=7	=7	=7	=7	=7	=7	=7	=7	=7	=7
2AA	na-	4C	-ral	2A	la	2e	-ria et	2cc	.
.	.	4D	.	.	.	.	.	.	.
2C	-tu-	4E	.	1G	ter-	2e	la	2cc	de-
.	.	4F	.	.	.	.	.	.	.
4GG	-ral	2G	.	.	.	1d	ter-	1b-y	-sti-
4AA	.	.	.	.	.	.	.	.	.
4BB-y	.	2D	de-	2F	-ra	.	.	.	.
4C	.	.	.	.	.	.	.	.	.
=8	=8	=8	=8	=8	=8	=8	=8	=8	=8
4D	.	2.F	-sti-	2r	.	2d	-ra	1a	-no
4E	.	.	.	.	.	.	.	.	.
1F	.	.	.	2D	Per	2d	Per	.	.
.	.	4G	.	.	.	.	.	.	.
.	.	4A	.	2F	na-	2c	na-	1r	.
.	.	4F	.	.	.	.	.	.	.
2BB-y	de-	[2B-y	.	2F	-tu-	2d	-tu-	.	.
=9	=9	=9	=9	=9	=9	=9	=9	=9	=9
1E-i	-sti-	4B-]	.	2.G	-ral	2.B-y	-ral	1r	.
.	.	4A	.	.	.	.	.	.	.
.	.	1G	.	.	.	.	.	.	.
.	.	.	.	4A	.	4c	.	.	.
1D	-no	.	.	2B-y	.	2d	.	2r	.
.	.	2F	-no	2A	de-	2d	de-	[2a	e
=10	=10	=10	=10	=10	=10	=10	=10	=10	=10
0r	.	2r	.	2.c	-sti-	1e-X	-sti-	2a]	.
.	.	2C	e	.	.	.	.	1g	piog-
.	.	.	.	4B-y	.	.	.	.	.
.	.	2D	piog-	1A	.	1d	.	.	.
.	.	2D	-gia et	.	.	.	.	2f	-gia et
=11	=11	=11	=11	=11	=11	=11	=11	=11	=11
2r	.	1E-X	gie-	1G	-no	1B-y	-no	2.g	gie-
1G	e	.	.	.	.	.	.	.	.
.	.	.	.	.	.	.	.	4a	.
.	.	1D	-lo,	1r	.	2r	.	4b-y	.
.	.	.	.	.	.	.	.	4a	.
[2F	piog-	.	.	.	.	2d	e	[2a	.
=12	=12	=12	=12	=12	=12	=12	=12	=12	=12
2F]	.	1r	.	2r	.	1c	piog-	4a]	.
.	.	.	.	.	.	.	.	8gL	.
.	.	.	.	.	.	.	.	8fJ	.
2E	-gia et	.	.	2C	e	.	.	2g	.
1F	gie-	2r	.	1c	piog-	2A	-gia et	1a	-lo,
.	.	[2A	e	.	.	[2c	gie-	.	.
=13	=13	=13	=13	=13	=13	=13	=13	=13	=13
2F	-lo,	2A]	.	2A	-gia et	4c]	.	0r	.
.	.	.	.	.	.	4d	.	.	.
2C	e	1G	piog-	2.c	gie-	2.e-X	.	.	.
2C	piog-	.	.	.	.	.	.	.	.
.	.	.	.	4B-y	.	4d	.	.	.
2D	-gia et	2F	-gia et	[2A	.	[2d	.	.	.
=14	=14	=14	=14	=14	=14	=14	=14	=14	=14
1E-X	gie-	2.G	gie-	4A]	.	4d]	.	1r	.
.	.	.	.	4G	.	8cL	.	.	.
.	.	.	.	.	.	8B-yJ	.	.	.
.	.	.	.	2.G	.	2c	.	.	.
.	.	4A	.	.	.	.	.	.	.
1D	-lo	4B-y	.	.	.	2d	-lo,	2r	.
.	.	4A	.	4F#i	.	.	.	.	.
.	.	[2d	.	2F#i	.	2A	e	2a	E
=15	=15	=15	=15	=15	=15	=15	=15	=15	=15
1r	.	4d]	.	1G	.	2B-y	piog-	1g	piog-
.	.	4c	.	.	.	.	.	.	.
.	.	2B-y	.	.	.	2d	-gia et	.	.
2r	.	2A	-lo,	[1D	-lo	1d	gie-	2f#X	-gia et
[2GG	Quan-	[2B-y	e	.	.	.	.	[2g	gie-
=16	=16	=16	=16	=16	=16	=16	=16	=16	=16
2GG]	.	2B-]	.	1D]	.	2G	-lo	4g]	.
.	.	.	.	.	.	.	.	4a	.
2GG	-to	1G	piog-	.	.	2d	Quan-	2.b-y	.
1D	più	.	.	1r	.	2d	-to	.	.
.	.	.	.	.	.	.	.	4a	.
.	.	2F	-gia et	.	.	[2f	più	[2a	.
=17	=17	=17	=17	=17	=17	=17	=17	=17	=17
1BB-y	ol-	2.D	gie-	1r	.	2f]	.	2a]	.
.	.	.	.	.	.	1d	ol-	2g	-lo
.	.	4E	.	.	.	.	.	.	.
1AA	-tre	2F	.	1A	Quan-	.	.	2r	.
.	.	2E	-lo	.	.	2c	-tre	[2a	Quan-
=18	=18	=18	=18	=18	=18	=18	=18	=18	=18
1D	puo-	2r	.	2A	-to	1f	puo-	2a]	.
.	.	2D	Quan-	1d	più	.	.	2a	-to
1GG	-te,	2D	-to	.	.	2d	-te,	1b-y	più
.	.	[2G	più	[2B-y	ol-	[2d	Quan-	.	.
=19	=19	=19	=19	=19	=19	=19	=19	=19	=19
1r	.	2G]	.	2B-]	.	2d]	.	2g	ol-
.	.	2F	ol-	2A	-tre	2d	-to	2a	-tre
1GG	Quan-	2D	-tre	1d	puo-	1B-y	più	[1b-y	puo-
.	.	[2G	puo-	.	.	.	.	.	.
=20	=20	=20	=20	=20	=20	=20	=20	=20	=20
2GG	-to	2G]	.	1d	-te	2G	ol-	2b-]	.
2D	più	2F	-te	.	.	2A	-tre	2a	-te
2BB-y	ol-	2r	.	2r	.	[1B-y	puo-	1r	.
2GG	-tre	2D	Et	2G	Et	.	.	.	.
=21	=21	=21	=21	=21	=21	=21	=21	=21	=21
1D	puo-	2D	as-	2F	as-	2B-]	.	2r	.
.	.	1d	-sa-	1F	-sa-	2A	-te	2a	Et
1AA	-te	.	.	.	.	1r	.	2a	as-
.	.	2c	-le et	2E	-le et	.	.	[2cc	-sa-
=22	=22	=22	=22	=22	=22	=22	=22	=22	=22
2r	.	2A	per-	2F	per-	2r	.	2cc]	.
1GG	Et	1B-y	-cuo-	1G	-cuo-	2d	Et	2b-y	-le et
.	.	.	.	.	.	2d	as-	2g	per-
2GG	as-	2G	-te,	2D	-te,	[2g	-sa-	[2b-y	-cuo-
=23	=23	=23	=23	=23	=23	=23	=23	=23	=23
1D	-sa-	1r	.	2r	.	2g]	.	2b-]	.
.	.	.	.	2D	Et	2f	-le et	2a	-te,
2BB-y	-le et	[1G	Et	2D	as-	1d	per-	2r	.
2GG	per-	.	.	[2d	-sa-	.	.	[2b-y	Et
=24	=24	=24	=24	=24	=24	=24	=24	=24	=24
1E-X	-cuo-	2G]	.	2d]	.	1g	-cuo-	2b-]	.
.	.	2G	as-	2c	-le et	.	.	2g	as-
1D	-te,	1d	-sa-	2A	per-	2f	-te,	2a	-sa-
.	.	.	.	[2B-y	-cuo-	2d	Et	2f	-le et
=25	=25	=25	=25	=25	=25	=25	=25	=25	=25
2r	.	2c	-le et	2B-]	.	2e	as-	2g	per-
2F	Tal	2c	per-	2A	-te,	2f	-sa-	1a	-cuo-
2D	che ’l	1B-y	-cuo-	2r	.	2f	-le et	.	.
2G	ca-	.	.	2d	Tal	2d	per-	2g	-te,
=26	=26	=26	=26	=26	=26	=26	=26	=26	=26
2F	-lor	1A	-te,	2d	che ’l	1.f	-cuo-	2r	.
2F	si	.	.	2c	ca-	.	.	2a	Tal
1B-y	smor-	2r	.	2B-y	-lor	.	.	2d	che ’l
.	.	2d	Tal	2G	si	2g	-te,	2b-y	ca-
=27	=27	=27	=27	=27	=27	=27	=27	=27	=27
1F	-za,	2d	che ’l	1A	smor-	2r	.	2a	-lor
.	.	2c	ca-	.	.	2f	Tal	2a	si
1r	.	2B-y	-lor	2G	-za	2d	che ’l	1b-y	smor-
.	.	2G	si	[2d	sin	2g	ca-	.	.
=28	=28	=28	=28	=28	=28	=28	=28	=28	=28
0r	.	1A	smor-	2d]	.	2f	-lor	2a	-za
.	.	.	.	2c	al	2e	si	1cc	sin
.	.	2G	-za	1e-X	cie-	1g	smor-	.	.
.	.	2G	sin	.	.	.	.	2b-y	al
=29	=29	=29	=29	=29	=29	=29	=29	=29	=29
2r	.	2B-y	al	2d	-lo,	2f	-za	1dd	cie-
2D	Tal	2.A	cie-	4D	sin	1f	sin	.	.
.	.	.	.	4E	.	.	.	.	.
2D	che ’l	.	.	4F	.	.	.	1a	-lo,
.	.	4B-y	.	4G	.	.	.	.	.
2C	ca-	4c	.	2A	.	2e	al	.	.
.	.	4A	.	.	.	.	.	.	.
=30	=30	=30	=30	=30	=30	=30	=30	=30	=30
2BB-y	-lor	2d	.	2D	al	1f	cie-	2r	.
2AA	si	2c	-lo,	1F	cie-	.	.	2a	Tal
1BB-y	smor-	2r	.	.	.	1d	-lo,	2a	che ’l
.	.	2d	Tal	4E	.	.	.	2g	ca-
.	.	.	.	4D	.	.	.	.	.
=31	=31	=31	=31	=31	=31	=31	=31	=31	=31
1AA	-za	2d	che ’l	1A	.	0r	.	2f	-lor
.	.	2c	ca-	.	.	.	.	2e	si
2r	.	2B-y	-lor	1D	-lo,	.	.	1f	smor-
2D	sin	2A	si	.	.	.	.	.	.
=32	=32	=32	=32	=32	=32	=32	=32	=32	=32
2GG	al	2.B-y	smor-	2r	.	2r	.	1d	-za
1G	cie-	.	.	2d	Tal	2g	Tal	.	.
.	.	8AL	.	.	.	.	.	.	.
.	.	8GJ	.	.	.	.	.	.	.
.	.	2B-y	.	2d	che ’l	2g	che ’l	2r	.
2D	-lo,	[2A	-za	2d	ca-	2f	ca-	[2a	sin
=33	=33	=33	=33	=33	=33	=33	=33	=33	=33
0r	.	2A]	.	2c	-lor	2e	-lor	2a]	.
.	.	1d	sin	2B-y	si	2d	si	2g	al
.	.	.	.	1A	smor-	1e	smor-	1a	cie-
.	.	2c#i	al	.	.	.	.	.	.
=34	=34	=34	=34	=34	=34	=34	=34	=34	=34
1.D	sin	1d	cie-	2A	-za	2f	-za	1a	-lo,
.	.	.	.	1F	sin	1d	sin	.	.
.	.	2A	-lo,	.	.	.	.	2r	.
2C#X	al	[2A	sin	2E	al	2e	al	[2a	sin
=35	=35	=35	=35	=35	=35	=35	=35	=35	=35
0D	cie-	2A]	.	0A	cie-	1f	cie-	2a]	.
.	.	2D	al	.	.	.	.	2a	al
.	.	1F	cie-	.	.	1d	.	1dd	cie-
=36	=36	=36	=36	=36	=36	=36	=36	=36	=36
0AAl	-lo.	0El	-lo.	0Al	-lo.	0el	-lo.	0cc#Xl	-lo.
=37||	=37||	=37||	=37||	=37||	=37||	=37||	=37||	=37||	=37||
*M2/1	*	*M2/1	*	*M2/1	*	*M2/1	*	*M2/1	*
*met(C|)	*	*met(C|)	*	*met(C|)	*	*met(C|)	*	*met(C|)	*
!!section: Sol nel mio
!!!OMD: Sol nel mio
2r	.	1r	.	1A	Sol	0r	.	0r	.
1D	Sol	.	.	.	.	.	.	.	.
.	.	1D	Sol	2F	nel	.	.	.	.
[2BB-y	nel	.	.	2G	mio	.	.	.	.
=38	=38	=38	=38	=38	=38	=38	=38	=38	=38
2BB-]	.	2F	nel	2B-y	pet-	1d	Sol	0r	.
2GG	mio	2G	mio	2B-y	-to ogn’	.	.	.	.
2D	pet-	[1A	pet-	2A	hor	[1f	nel	.	.
2D	-to ogn’	.	.	[2d	las-	.	.	.	.
=39	=39	=39	=39	=39	=39	=39	=39	=39	=39
1AA	hor	2A]	.	2d]	.	2f]	.	1r	.
.	.	2A	-to ogn’	2c	-so	2e	mio	.	.
1A	las-	1D	hor	2r	.	2f	pet-	1a	Sol
.	.	.	.	2F	si	2f	-to ogn’	.	.
=40	=40	=40	=40	=40	=40	=40	=40	=40	=40
1G	-so	2r	.	2.B-y	ser-	1d	hor	1b-y	nel
.	.	1B-y	las-	.	.	.	.	.	.
.	.	.	.	4c	.	.	.	.	.
2r	.	.	.	1d	.	2r	.	2g	mio
2GG	si	2G	-so	.	.	[2g	las-	[2b-y	pet-
=41	=41	=41	=41	=41	=41	=41	=41	=41	=41
2.BB-y	ser-	2r	.	1d	-ra	2g]	.	2b-]	.
.	.	2D	si	.	.	2f	-so	2b-y	-to ogn’
4C	.	.	.	.	.	.	.	.	.
1D	.	2.F	ser-	2r	.	2r	.	2a	hor
.	.	.	.	2A	Più	2d	si	[2dd	las-
.	.	4G	.	.	.	.	.	.	.
=42	=42	=42	=42	=42	=42	=42	=42	=42	=42
2AA	-ra	1A	.	2A	vi-	2f	ser-	2dd]	.
2AA	Più	.	.	2A	-vo ar-	2e	-ra	2cc	-so
2BB-y	vi-	1D	-ra	2F	-den-	2r	.	2r	.
2BB-y	-vo ar-	.	.	2D	-te	[2d	Più	2f	si
=43	=43	=43	=43	=43	=43	=43	=43	=43	=43
2GG	-den-	2r	.	1G	lu-	2d]	.	1b-y	ser-
2GG	-te	2d	Più	.	.	1g	vi-	.	.
1D	lu-	2d	vi-	2A	-me,	.	.	2a	-ra
.	.	2d	-vo ar-	2A	Più	2f	-vo ar-	2a	Più
=44	=44	=44	=44	=44	=44	=44	=44	=44	=44
1AA	-me,	4c	-den-	2.A	vi-	2e	-den-	1.cc	vi-
.	.	4B-y	.	.	.	.	.	.	.
.	.	4A	.	.	.	2e	-te	.	.
.	.	4G	.	4B-y	.	.	.	.	.
1r	.	2F	.	2c	.	[1f	lu-	.	.
.	.	[2D	-te	2d	-vo ar-	.	.	2b-y	-vo ar-
=45	=45	=45	=45	=45	=45	=45	=45	=45	=45
0r	.	2D]	.	2A	-den-	2f]	.	2a	-den-
.	.	2.d	lu-	2B-y	-te	4e	.	2g	-te
.	.	.	.	.	.	4d	.	.	.
.	.	.	.	1A	lu-	1e	.	1a	lu-
.	.	4c#i	.	.	.	.	.	.	.
.	.	2c#i	.	.	.	.	.	.	.
=46	=46	=46	=46	=46	=46	=46	=46	=46	=46
1D	Né	2d	-me,	2F#X	-me,	2d	-me,	0a	-me,
.	.	2A	Né	2F#i	Né	2d	Né	.	.
2D	per	2A	per	2F#i	per	2d	per	.	.
2D	can-	2A	can-	2F#i	can-	2d	can-	.	.
=47	=47	=47	=47	=47	=47	=47	=47	=47	=47
2C	-giar	2c	-giar	2G	-giar	2e	-giar	1r	.
2E-X	di	2c	di	2G	di	2g	di	.	.
2D	ciel	2d	ciel,	1A	ciel	2f	ciel	2r	.
2D	can-	2D	Né	.	.	2f	can-	2a	Né
=48	=48	=48	=48	=48	=48	=48	=48	=48	=48
2D	-gia	2A	per	0r	.	2f	-gia	2a	per
2D	co-	2A	can-	.	.	2f	co-	2a	can-
1C	-stu-	2A	-giar	.	.	1e	-stu-	2cc	-giar
.	.	2G	di	.	.	.	.	2cc	di
=49	=49	=49	=49	=49	=49	=49	=49	=49	=49
2BB-y	-me,	2B-y	ciel	1d	Né	2f	-me,	1dd	ciel
2D	Né	2A	can-	.	.	2f	Né	.	.
2D	per	2A	-gia	2d	per	2f	per	2r	.
2D	can-	2A	co-	2d	can-	2f	can-	[2dd	can-
=50	=50	=50	=50	=50	=50	=50	=50	=50	=50
2G	-giar	1G	-stu-	2B-y	-giar	2d	-giar	2dd]	.
2C	di	.	.	2G	di	2e	di	2cc	-gia
2D	ciel	[1F	-me,	2d	ciel	2f	ciel	2a	co-
2AA	can-	.	.	2c	can-	2f	can-	[2cc	-stu-
=51	=51	=51	=51	=51	=51	=51	=51	=51	=51
2BB-y	-gia	1F]	.	2d	-gia	2f	-gia	4cc]	.
.	.	.	.	.	.	.	.	4b-y	.
2BB-y	co-	.	.	2d	co-	2f	co-	1b-y	.
1F	-stu-	2r	.	1c	-stu-	1f	-stu-	.	.
.	.	2F	Ma	.	.	.	.	2a	.
=52	=52	=52	=52	=52	=52	=52	=52	=52	=52
1BB-y	-me,	2F	con	2B-y	-me,	1d	-me,	0b-y	-me,
.	.	2F	sì	2B-y	Ma	.	.	.	.
2r	.	[1G	a-	2B-y	con	1r	.	.	.
2E-X	Ma	.	.	2B-y	sì	.	.	.	.
=53	=53	=53	=53	=53	=53	=53	=53	=53	=53
2E-i	con	2G]	.	1.c	a-	0r	.	1r	.
2E-i	sì	2G	-spra	.	.	.	.	.	.
[1F	a-	1A	guer-	.	.	.	.	2r	.
.	.	.	.	2c	-spra	.	.	2a	Ma
=54	=54	=54	=54	=54	=54	=54	=54	=54	=54
2F]	.	1F	-ra,	2.d	guer-	2r	.	2a	con
2F	-spra	.	.	.	.	2d	Ma	2a	sì
.	.	.	.	4c	.	.	.	.	.
[1G	guer-	1r	.	2B-y	.	2d	con	[1b-y	a-
.	.	.	.	2G	-ra,	2d	sì	.	.
=55	=55	=55	=55	=55	=55	=55	=55	=55	=55
1G]	.	0r	.	2r	.	1.e-X	a-	2b-]	.
.	.	.	.	2G	Ma	.	.	2b-y	-spra
2C	-ra,	.	.	2G	con	.	.	[1cc	guer-
2C	Ma	.	.	2G	sì	2e-i	-spra	.	.
=56	=56	=56	=56	=56	=56	=56	=56	=56	=56
2F	con	0r	.	1.A	a-	1.f	guer-	2cc]	.
2F	sì	.	.	.	.	.	.	2cc	-ra,
2D	a-	.	.	.	.	.	.	2r	.
2D	-spra	.	.	2A	-spra	2d	-ra,	2f	Ma
=57	=57	=57	=57	=57	=57	=57	=57	=57	=57
1BB-y	guer-	1D	Ma	0B-y	guer-	2r	.	2f	con
.	.	.	.	.	.	2d	Ma	2f	sì
2GG	-ra,	2D	con	.	.	1d	con	[1g	a-
2GG	Ma	2D	sì	.	.	.	.	.	.
=58	=58	=58	=58	=58	=58	=58	=58	=58	=58
1C	con	1.E	a-	2G	-ra,	2c	sì	2g]	.
.	.	.	.	2G	Ma	2.c	a-	2g	-spra
1AA	sì	.	.	2c	con	.	.	[1a	guer-
.	.	.	.	.	.	4B-y	.	.	.
.	.	2F	-spra	2c	sì	4A	.	.	.
.	.	.	.	.	.	4G	.	.	.
=59	=59	=59	=59	=59	=59	=59	=59	=59	=59
2D	a-	0F	guer-	2d	a-	2F	.	2a]	.
2D	-spra	.	.	2d	-spra	2B-y	-spra	2d	-ra
1D	guer-	.	.	1d	guer-	1A	guer-	1r	.
=60	=60	=60	=60	=60	=60	=60	=60	=60	=60
[0GG	-ra	0D	-ra	0BnX	-ra	0G	-ra	0r	.
=61	=61	=61	=61	=61	=61	=61	=61	=61	=61
1GG]	.	1r	.	1r	.	1r	.	1r	.
1r	.	1r	.	1c	(Mer-	1r	.	[1g	(Mer-
=62	=62	=62	=62	=62	=62	=62	=62	=62	=62
0r	.	0G	(Mer-	1B-y	-cè	0d	(Mer-	1g]	.
.	.	.	.	1G	d’u-	.	.	1b-y	-cè
=63	=63	=63	=63	=63	=63	=63	=63	=63	=63
0r	.	1F	-cè	1c	-na em-	1f	-cè	1a	d’u-
.	.	1C	d’u-	1c	-pia et	1e	d’u-	1g	-na em-
=64	=64	=64	=64	=64	=64	=64	=64	=64	=64
1r	.	1G	-na em-	2B-y	fe-	1d	-na em-	1b-y	-pia et
.	.	.	.	2G	.	.	.	.	.
1r	.	1D	-pia et	[1d	.	1f	-pia et	[1a	fe-
=65	=65	=65	=65	=65	=65	=65	=65	=65	=65
0r	.	0A	fe-	2d]	.	0e	fe-	1a]	.
.	.	.	.	2c#i	.	.	.	.	.
.	.	.	.	1c#i	.	.	.	1a	-ra)
=66	=66	=66	=66	=66	=66	=66	=66	=66	=66
1.BB-y	l’al-	2F	-ra)	2d	-ra)	1d	-ra)	1r	.
.	.	1F	l’al-	1B-y	l’al-	.	.	.	.
.	.	.	.	.	.	2r	.	[1dd	l’al-
2GG	-ma	2G	-ma	2B-y	-ma	[2g	l’al-	.	.
=67	=67	=67	=67	=67	=67	=67	=67	=67	=67
1D	sfa-	2A	sfa-	1A	sfa-	2g]	.	2dd]	.
.	.	2D	-ce,	.	.	2f	-ma	2dd	-ma
4GG	-ce,	2r	.	1G	-ce,	1d	sfa-	1b-y	sfa-
4AA	.	.	.	.	.	.	.	.	.
4BB-y	.	2G	l’al-	.	.	.	.	.	.
4C	.	.	.	.	.	.	.	.	.
=68	=68	=68	=68	=68	=68	=68	=68	=68	=68
0D	.	2F	-ma	2r	.	2d	-ce,	2a	-ce,
.	.	2.D	sfa-	1d	l’al-	1f	l’al-	2a	l’al-
.	.	.	.	.	.	.	.	2b-y	-ma
.	.	4E	.	.	.	.	.	.	.
.	.	4F	.	2d	-ma	2f	-ma	[2a	sfa-
.	.	4D	.	.	.	.	.	.	.
=69	=69	=69	=69	=69	=69	=69	=69	=69	=69
1r	.	1G	.	1B-y	sfa-	0d	sfa-	4a]	.
.	.	.	.	.	.	.	.	4g	.
.	.	.	.	.	.	.	.	1g	.
2r	.	2D	-ce,	1A	-ce,	.	.	.	.
2A	Che	2D	Che	.	.	.	.	2f#i	.
=70	=70	=70	=70	=70	=70	=70	=70	=70	=70
2.B-y	mor-	2.G	mor-	2r	.	1d	-ce,	1g	-ce,
.	.	.	.	2G	Che	.	.	.	.
4A	-te	4A	-te	.	.	.	.	.	.
2G	sol	2B-y	sol	2.d	mor-	1r	.	1r	.
2F#X	de-	2A	de-	.	.	.	.	.	.
.	.	.	.	4c	-te	.	.	.	.
=71	=71	=71	=71	=71	=71	=71	=71	=71	=71
1G	-sio	2d	-sio	2B-y	sol	2r	.	0r	.
.	.	1G	per	2B-y	de-	2d	Che	.	.
1D	per	.	.	1A	-sio	2.d	mor-	.	.
.	.	2F#i	tro-	.	.	.	.	.	.
.	.	.	.	.	.	4d	-te	.	.
=72	=72	=72	=72	=72	=72	=72	=72	=72	=72
2C	tro-	2G	-var	2r	.	2e	sol	0r	.
2D	-var	1B-y	pa-	2d	per	2f	de-	.	.
1E-X	pa-	.	.	2B-y	tro-	1g	-sio	.	.
.	.	4A	.	2c	-var	.	.	.	.
.	.	4G	.	.	.	.	.	.	.
=73	=73	=73	=73	=73	=73	=73	=73	=73	=73
0D	-ce,	1A	-ce,	1d	pa-	2r	.	2r	.
.	.	.	.	.	.	2f	per	2a	Che
.	.	1r	.	2A	-ce,	2f	tro-	2.a	mor-
.	.	.	.	2A	per	2f	-var	.	.
.	.	.	.	.	.	.	.	4a	-te
=74	=74	=74	=74	=74	=74	=74	=74	=74	=74
1r	.	0r	.	2G	tro-	1e-X	pa-	2b-y	sol
.	.	.	.	2A	-var	.	.	2cc	de-
2r	.	.	.	1B-y	pa-	2d	-ce,	1dd	-sio
2D	Che	.	.	.	.	2f	Che	.	.
=75	=75	=75	=75	=75	=75	=75	=75	=75	=75
2.D	mor-	2r	.	1A	-ce,	2.f	mor-	2r	.
.	.	2D	per	.	.	.	.	2a	per
4C	-te	.	.	.	.	4e	-te	.	.
2BB-y	sol-	2D	tro-	1r	.	2d	sol	2g	tro-
2AA	-de-	2E	-var	.	.	2c#X	de-	2a	-var
=76	=76	=76	=76	=76	=76	=76	=76	=76	=76
1GG	-sio	1G	pa-	2r	.	1d	-sio	1b-y	pa-
.	.	.	.	2G	Che	.	.	.	.
1D	per	2F	-ce,	2.A	mor-	2r	.	[1a	-ce,
.	.	2D	Che	.	.	2f	per	.	.
.	.	.	.	4G	-te	.	.	.	.
=77	=77	=77	=77	=77	=77	=77	=77	=77	=77
2D	tro-	2.A	mor-	2F	sol	2d	tro-	1a]	.
2C#X	-var	.	.	2E	de-	2e	-var	.	.
.	.	4A	-te	.	.	.	.	.	.
1D	pa-	2A	sol	2D	-sio	1f	pa-	2r	.
.	.	2A	de-	[2d	per	.	.	2a	Che
=78	=78	=78	=78	=78	=78	=78	=78	=78	=78
2GG	-ce,	2G	-sio	2d]	.	1d	-ce,	2.b-y	mor-
2G	per	2G	per	2B-y	tro-	.	.	.	.
.	.	.	.	.	.	.	.	4a	-te
2C	tro-	2c	tro-	2e-i	-var	1r	.	2g	sol
2D	-var	2A	-var	[2d	pa-	.	.	2f#X	de-
=79	=79	=79	=79	=79	=79	=79	=79	=79	=79
1E-X	pa-	1G	pa-	4d]	.	1r	.	2g	-sio
.	.	.	.	8cL	.	.	.	.	.
.	.	.	.	8B-yJ	.	.	.	.	.
.	.	.	.	2c	.	.	.	1g	per
1D	-ce,	2A	-ce,	2d	-ce,	2r	.	.	.
.	.	2D	per	2A	per	2d	per	2f#i	tro-
=80	=80	=80	=80	=80	=80	=80	=80	=80	=80
0r	.	2C	tro-	2c	tro-	2e	tro-	2g	-var
.	.	2D	-var	2B-y	-var	2f	-var	2.b-y	pa-
.	.	1E-X	pa-	1G	pa-	2.B-y	pa-	.	.
.	.	.	.	.	.	.	.	4a	.
.	.	.	.	.	.	.	.	[2g	.
.	.	.	.	.	.	4c	.	.	.
=81	=81	=81	=81	=81	=81	=81	=81	=81	=81
2r	.	2D	-ce,	1A	-ce,	1d	.	4g]	.
.	.	.	.	.	.	.	.	4f#i	.
2A	Che	2D	Che	.	.	.	.	2f#i	.
2.B-y	mor-	2.G	mor-	2r	.	1d	-ce,	1g	-ce,
.	.	.	.	2G	Che	.	.	.	.
4A	-te	4A	-te	.	.	.	.	.	.
=82	=82	=82	=82	=82	=82	=82	=82	=82	=82
2G	sol	2B-y	sol	2.d	mor-	1r	.	0r	.
2F#X	de-	2A	de-	.	.	.	.	.	.
.	.	.	.	4c	-te	.	.	.	.
1G	-sio	2d	-sio	2B-y	sol	2r	.	.	.
.	.	[2G	per	2B-y	de-	2d	Che	.	.
=83	=83	=83	=83	=83	=83	=83	=83	=83	=83
1D	per	2G]	.	1A	-sio	2.d	mor-	0r	.
.	.	2F#i	tro-	.	.	.	.	.	.
.	.	.	.	.	.	4d	-te	.	.
2C	tro-	2G	-var	2r	.	2e	sol	.	.
2D	-var	[2B-y	pa-	2d	per	2f	de-	.	.
=84	=84	=84	=84	=84	=84	=84	=84	=84	=84
1E-X	pa-	2B-]	.	2B-y	tro-	1g	-sio	1r	.
.	.	4A	.	2c	-var	.	.	.	.
.	.	4G	.	.	.	.	.	.	.
[1D	-ce,	1A	-ce,	1d	pa-	2r	.	2r	.
.	.	.	.	.	.	2f	per	2a	Che
=85	=85	=85	=85	=85	=85	=85	=85	=85	=85
1D]	.	0r	.	2A	-ce,	2f	tro-	2.a	mor-
.	.	.	.	2A	per	2f	-var	.	.
.	.	.	.	.	.	.	.	4a	-te
1r	.	.	.	2G	tro-	1e-X	pa-	2b-y	sol
.	.	.	.	2A	-var	.	.	2cc	de-
=86	=86	=86	=86	=86	=86	=86	=86	=86	=86
2r	.	1r	.	1B-y	pa-	2d	-ce,	1dd	-sio
2D	Che	.	.	.	.	2f	Che	.	.
2.D	mor-	2r	.	1A	-ce,	2.f	mor-	2r	.
.	.	2D	per	.	.	.	.	2a	per
4C	-te	.	.	.	.	4e	-te	.	.
=87	=87	=87	=87	=87	=87	=87	=87	=87	=87
2BB-y	sol	2D	tro-	1r	.	2d	sol	2g	tro-
2AA	de-	2E	-var	.	.	2c#X	de-	2a	-var
1GG	-sio	1G	pa-	2r	.	1d	-sio	1b-y	pa-
.	.	.	.	2G	Che	.	.	.	.
=88	=88	=88	=88	=88	=88	=88	=88	=88	=88
1D	per	2F	-ce,	2.A	mor-	2r	.	0a	-ce,
.	.	2D	Che	.	.	2f	per	.	.
.	.	.	.	4G	-te	.	.	.	.
2D	tro-	2.A	mor-	2F	sol	2d	tro-	.	.
2C#X	-var	.	.	2E	de-	2e	-var	.	.
.	.	4A	-te	.	.	.	.	.	.
=89	=89	=89	=89	=89	=89	=89	=89	=89	=89
1D	pa-	2A	sol	2D	-sio,	1f	pa-	2r	.
.	.	2A	de-	2d	Che	.	.	2a	Che
1GG	-ce,	2G	-sio	2.d	mor-	2d	-ce,	2.b-y	mor-
.	.	2G	per	.	.	2d	Che	.	.
.	.	.	.	4c	-te	.	.	4a	-te
=90	=90	=90	=90	=90	=90	=90	=90	=90	=90
2r	.	2G	tro-	2B-y	sol	2.d	mor-	2g	sol
2D	Che	2D	-var	2A	de-	.	.	2f#X	de-
.	.	.	.	.	.	4c	-te	.	.
2.E-X	mor-	1G	pa-	2G	-sio	2B-y	sol	1g	-sio
.	.	.	.	2C	per	2G	de-	.	.
4D	-te	.	.	.	.	.	.	.	.
=91	=91	=91	=91	=91	=91	=91	=91	=91	=91
2C	sol	2G	-ce,	2E-X	tro-	2c	-sio	2r	.
2BBnX	de-	2G	per	2D	-var	2d	per	2d	per
2C	-sio	2G	tro-	2.G	pa-	2e-X	tro-	2c	tro-
2GG	per	2B-y	-var	.	.	2d	-var	2d	-var
.	.	.	.	4F	.	.	.	.	.
=92	=92	=92	=92	=92	=92	=92	=92	=92	=92
2C	tro-	0G	pa-	1E-X	.	0c	pa-	0e-X	pa-
2C	-var	.	.	.	.	.	.	.	.
1C	pa-	.	.	1C	.	.	.	.	.
=93	=93	=93	=93	=93	=93	=93	=93	=93	=93
0GGl	-ce.	0Gl	-ce.	0Dl	-ce.	0BnXl	-ce.	0dl	-ce.
==	==	==	==	==	==	==	==	==	==
*-	*-	*-	*-	*-	*-	*-	*-	*-	*-
!!!system-decoration: s1,s2,s3,s4,s5
!!!RDF**kern: i = editorial accidental
!!!RDF**kern: l = terminal long
!!!ENC: Janosch Umbreit
!!!END: 2026/04/24
!!!EED: Benjamin Ory
!!!EEV: 2026/05/18
!!!YEC: Copyright 2026 Jessie Ann Owens and Scott Metcalfe, All Rights Reserved
!!!ONB: Translated from MusicXML on 2026/05/18
!!!verovio: header encoded
!!!header-left: Edited by Jessie Ann Owens and Scott Metcalfe (2026)\n
!!!header-right:
!!!header-center:
!!muse2ps: C^@{COM}^i2I150v75,75,75,75,110c122z18l2780t100
